!!!COM: Schubert, Franz
!!!CNT: Deutscher
!!!TXO: Deutsch
!!!OTL: "Fruehlingstraum"
!!!OPR: Winterreise
!!!LYR: Mu2ller, Wilhelm
!!!OPS: Opus 89
!!!ONM: No. 11
!!!ODT: 1827/
!!NB: Vocal melody only encoded.
**kern	**silbe
*clefG2	*
*k[f#c#g#]	*
*M6/8	*
*MM[bewegt]	*
=4	=4
4r	.
8r	.
4r	.
{8e	{Ich
=5	=5
8.e	tra2um-
16f#	-te
8e	von
4cc#	bun-
8cc#	-ten
=6	=6
(8b	Blu-
8a)	|
8a}	-men,}
4r	.
{8a	{so
=7	=7
8.b	wie
16cc#	sie
8b	wohl
8.ee	blu2-
16ff#	-hen
8ee	im
=8	=8
4cc#}	Mai;}
8r	.
4r	.
{8a	{ich
=9	=9
8.a	tra2um-
16g#	-te
8f#	von
8f#	gru2-
8a	|
8dd	-nen
=10	=10
(4cc#	Wie-
8ee)	|
8a}	-sen,}
8r	.
{8g	{von
=11	=11
8.f#M	lu-
16e#	-sti-
8f#	-gem
8.g#M	Vo-
16f#	-gel-
8g#	-ge-
=12	=12
8a	-schrei,
8cc#	|
[8ee	|
8ee]}	|}
{16dd	{von
16cc#	|
16b	|
16a	|
=13	=13
8.g#	lu-
16f#	-sti-
8f#	-gem
8.dd	Vo-
16g#	-gel-
8g#	-ge-
=14	=14
4a}	-schrei.}
8r	.
8r	.
8r;	.
{8b	{Und
=15	=15
4b	als
8b	die
4b	Ha2h-
8ccn	-ne
=16	=16
4b	kra2h-
8e	-ten,
4r	.
8b	da
=17	=17
4b	ward
8b	mein
8.cc#	Au-
16b	|
8cc#	-ge
=18	=18
4dd}	wach;}
8r	.
4r	.
{8dd	{da
=19	=19
4dd	was
8dd	es
4dd	kalt
8ee-	und
=20	=20
4dd	fin-
8gn	-ster,
4r	.
8dd	es
=21	=21
8.een	schrie-
16een	-en
8een	die
8.ffn	Ra-
16een	-ben
8een	vom
=22	=22
4a}	Dach,}
8r	.
4r	.
{8a	{da
=23	=23
4b-	war
8b-	es
4dd	kalt
8b-	und
=24	=24
(8b-	fin-
8a)	|
8a	-ster,
4r	.
8ee	es
=25	=25
8ee	schrie-
8e	-en
8e	die
8.ffn	Ra-
16ee	-ben
8ee	vom
=26	=26
4a}	Dach.}
8r	.
4r;	.
8r	.
=28	=28
*M2/4	*
4r	.
8r	.
{8a	{Doch
=29	=29
8dd	an
8dd	den
8cc#	Fen-
8cc#	-ster-
=30	=30
4ee	-schei-
8dd}	-ben,}
{8cc#	{wer
=31	=31
(16cc#	mal-
16b)	|
16b	-te
16b	die
16cc#	Bla2t-
16ee	|
16ee	-ter
16dd	|
=32	=32
4cc#}	da?}
8r	.
{8cc#	{doch
=33	=33
16cc#	an
16b	|
8b	den
8b	Fen-
8cc#	-ster-
=34	=34
4a	-schei-
8e}	-ben,}
{8cc#	{wer
=35	=35
(16cc#	mal-
16b)	|
16b	-te
16b	die
8dd	Bla2t
8cc#	-ter
=36	=36
4a}	da?}
8r	.
{8a	{Ihr
=37	=37
16a	lacht
16fn	|
8fn	wohl
8fn	u2-
16fn	-ber
16a	den
=38	=38
8e	Tra2u-
8e}	-mer,}
8r	.
{8e	{der
=39	=39
8gn	Blu-
16fn	-men
16a	im
8dd	Win-
8ffn	-ter
=40	=40
4ee}	sah,}
8r	.
{8ccn	{der
=41	=41
8b	Blu-
16b	-men
16b	im
8dd	Win-
8ccn	-ter
=42	=42
4a}	sah?}
4r	.
=48	=48
*M6/8	*
4r	.
8r	.
4r	.
{8e	{Ich
=49	=49
8.e	tra2um-
16f#	-te
8e	von
4cc#	Lieb'
8cc#	um
=50	=50
(8b	Lie-
8a)	|
8a}	-be,}
4r	.
{8a	{von
=51	=51
8.b	ei-
16cc#	|
8b	-ner
8.ee	scho2-
16ff#	|
8ee	-nen
=52	=52
4cc#}	Maid,}
8r	.
4r	.
{8a	{von
=53	=53
8.a	Her-
16g#	|
8f#	-zen
8f#	und
8a	|
8dd	von
=54	=54
(4cc#	Ku2s-
8ee)	|
8a}	-sen,}
8r	.
{8g#	{von
=55	=55
8.f#M	Won-
16e#	-ne
8f#	und
8.g#M	Se-
16f#	|
8g#	-lig-
=56	=56
8a	-keit.
8cc#	|
[8ee	|
8ee]}	|}
{16dd	{von
16cc#	|
16b	|
16a	|
=57	=57
8.g#	Won-
16f#	-ne
8f#	und
8.dd	Se-
16g#	|
8g#	-lig-
=58	=58
4a}	-keit.}
8r	.
8r	.
8r;	.
{8b	{Und
=59	=59
4b	als
8b	die
4b	Ha2h-
8ccn	-ne
=60	=60
4b	kra2h-
8e	-ten,
4r	.
8b	da
=61	=61
4b	ward
8b	mein
8.cc#	Her-
16b	|
8cc#	-ze
=62	=62
4dd}	wach,}
8r	.
4r	.
{8dd	{nun
=63	=63
4dd	sitz'
8dd	ich
4dd	hier
8ee-	al-
=64	=64
4dd	-lei-
8g	-ne
4r	.
8dd	und
=65	=65
8.een	den-
16een	-ke
8een	dem
4ffn	Trau-
8een	-me
=66	=66
4a}	nach,}
8r	.
4r	.
{8a	{nun
=67	=67
4b-	sitz'
8b-	ich
4dd	hier
8b-	al-
=68	=68
(8b-	-lei-
8a)	|
8a	-ne
4r	.
8ee	und
=69	=69
8.ee	den-
16e	-ke
8e	dem
4ffn	Trau-
8ee	-me
=70	=70
4a}	nach.}
8r	.
4r;	.
8r	.
=72	=72
*M2/4	*
4r	.
8r	.
{8a	{Die
=73	=73
8dd	Au-
8dd	-gen
8cc#	schliess'
8cc#	ich
=74	=74
4ee	wie-
8dd}	-der,}
{8cc#	{noch
=75	=75
(16cc#	schla2gt
8b)	|
16b	das
16cc#	Herz
16ee	|
16ee	so
16dd	|
=76	=76
4cc#}	warm,}
8r	.
{8cc#	{die
=77	=77
16cc#	Au-
16b	|
8b	-gen
8b	schliess'
8cc#	ich
=78	=78
4a	wie-
8e}	-der,}
{8cc#	{noch
=79	=79
(16cc#	schlagt
8b)	|
16b	das
8dd	Herz
8cc#	so
=80	=80
4a}	warm}
8r	.
{8a	{Wann
=81	=81
16a	gru2nt
16fn	|
8fn	ihr
8fn	Bla2t-
16fn	-ter
16a	am
=82	=82
8e	Fen-
8e}	-ster?}
8r	.
{8e	{wann
=83	=83
8gn	halt'
16fn	ich
16a	mein
8dd	Lieb-
16ffn	-chen
16ffn	im
=84	=84
4ee}	Arm?}
8r	.
{8ccn	{wann
=85	=85
8b	halt'
16b	ich
16b	mein
8dd	Lieb-
16ccn	-chen
16ccn	im
=86	=86
4a}	Arm?}
4r	.
*-	*-
